X:1
T:Leipzig (Schop), 77.77.77
T:Leipzig (Schop), 77.77.77
T:Johann Schop, 1642
T:Public Domain Courtesy of the Cyber Hymnal™
C:Johann Schop, 1642
Z:Public Domain
Z:Courtesy of the Cyber Hymnal™
%%score ( 1 2 ) ( 3 4 )
L:1/8
Q:1/4=108
M:4/4
K:G
V:1 treble 
V:2 treble 
V:3 bass 
V:4 bass 
V:1
 B3 z c [Fd]2 [Gd]2 | c2 [GB]2 [FA]4 | B3 z c [Ad]2 [GB]2 | [GA]2 [FA]2 [DG]4 | %4
 [FA]3 [^GB] [Ac]2 [Ac]2 | [AB]2 [^GB]2 [EA]4 | [Ec]3 [Gd] [Ge]2 [Ge]2 | [Gd]2 d2 [Ec]4 | %8
 B3 z c [Ad]2 [Fd]2 | [Gc]2 [GB]2 [FA]4 | B3 z c [Gd]2 [GB]2 | [GA]2 [FA]2 [DG]4 |] %12
V:2
 G2 G2 x5 | (GF) x6 | G2 G2 x5 | x8 | x8 | x8 | x8 | x2 (=FG) x4 | G2 G2 x5 | x8 | G2 G2 x5 | x8 |] %12
V:3
 [G,D]2 [E,E]2 (DC) [E,B,]2 x | [A,,C]2 D2 [D,D]4 | D2 [E,E]2 [F,A,]2 (B,C) x | %3
 [D,D]2 (CD) [G,,B,]4 | D3 [B,,D] E2 E2 | [E,E]2 (DE) [A,,C]4 | C3 [=F,B,] C2 [C,C]2 | %7
 [G,C]2 [G,,B,]2 [C,C]4 | D2 [E,E]2 [F,D]2 [B,D]2 x | E2 [G,D]2 [D,D]4 | %10
 [G,D]2 [E,E]2 D2 [G,,D]2 x | [D,D]2 (CD) [G,,B,]4 |] %12
V:4
 x4 B,,2 x3 | x2 (B,,C,) x4 | (G,F,) x3 G,2 x2 | x2 D,2 x4 | D,2 (C,A,, B,,) (C,D,) x | x2 E,2 x4 | %6
 A,2 (G,E, D,) x3 | x8 | (G,F,) x7 | (E,F,) x6 | x4 (B,,A,,) x3 | x2 D,2 x4 |] %12

